src/static/logos/recast.ai.svg

<?xml version="1.0" encoding="UTF-8"?>
<svg width="256px" height="276px" viewBox="0 0 256 276" version="1.1" xmlns="http://www.w3.org/2000/svg" xmlns:xlink="http://www.w3.org/1999/xlink" preserveAspectRatio="xMidYMid">
    <defs>
        <linearGradient x1="47.2711631%" y1="-17.6931132%" x2="61.4713401%" y2="99.9413769%" id="linearGradient-1">
            <stop stop-color="#FFD54F" offset="0%"></stop>
            <stop stop-color="#FFD03D" offset="21.64%"></stop>
            <stop stop-color="#FFC516" offset="73.09%"></stop>
            <stop stop-color="#FFC107" offset="100%"></stop>
        </linearGradient>
        <linearGradient x1="0%" y1="49.9994582%" x2="99.9998361%" y2="49.9994582%" id="linearGradient-2">
            <stop stop-color="#FFD54F" offset="0%"></stop>
            <stop stop-color="#FFD03D" offset="21.64%"></stop>
            <stop stop-color="#FFC516" offset="73.09%"></stop>
            <stop stop-color="#FFC107" offset="100%"></stop>
        </linearGradient>
        <linearGradient x1="49.9992616%" y1="-0.0201921479%" x2="49.9992616%" y2="99.9805355%" id="linearGradient-3">
            <stop stop-color="#FFC107" offset="0%"></stop>
            <stop stop-color="#FFBE06" offset="42.13%"></stop>
            <stop stop-color="#FFB605" offset="69.37%"></stop>
            <stop stop-color="#FFA701" offset="92.33%"></stop>
            <stop stop-color="#FFA000" offset="100%"></stop>
        </linearGradient>
    </defs>
	<g>
		<path d="M128,257.039205 C131.347557,257.039205 134.665749,256.917563 137.941992,256.653305 C139.909416,256.506495 145.153082,255.906671 147.099531,255.680164 C150.388359,255.260707 154.570708,275.63794 157.788221,274.983586 C161.211287,274.287287 160.376495,253.343787 163.694688,252.374841 C217.016485,236.922036 256,192.694464 256,129.775877 L0,129.775877 C0,188.499891 36.735031,234.027781 87.6657163,250.923519 C90.6063645,251.896659 90.4553469,274.371179 93.4924786,275.130396 C96.6218989,275.918976 102.943663,254.715412 106.165372,255.27329 C110.041491,255.944422 113.984728,256.397436 117.974109,256.707834 C121.283912,256.955314 124.627274,257.039205 128,257.039205 Z" fill="url(#linearGradient-1)"></path>
		<ellipse fill="#FFE082" cx="128" cy="128.781763" rx="128" ry="24.4837194"></ellipse>
		<path d="M255.995805,129.775877 C255.995805,62.6627179 204.028971,6.35477727 138.021696,1.2332043 C134.711893,0.985724526 131.372726,0 128,0 C124.656638,0 121.342641,1.02347568 118.066398,1.27095545 C52.0129781,6.34219355 0,62.6627179 0,129.775877 L0.100678399,129.775877 C0.0629239996,133.97045 0,130.161778 0,130.426036 C0,143.957727 57.3111788,154.842642 128,154.842642 C198.697211,154.842642 256,143.987089 256,130.463787 C256,130.203724 255.941271,133.97045 255.899322,129.775877 L255.995805,129.775877 L255.995805,129.775877 Z" fill="url(#linearGradient-2)" opacity="0.2"></path>
		<path d="M183.785192,243.7508 C167.388608,251.003216 149.242888,257.735504 127.984795,257.039205 C96.7729811,256.024119 77.926767,246.296905 66.81115,240.932047 C61.5679345,238.406914 93.3040696,225.949034 131.487263,225.949034 C157.992766,225.940645 194.636551,238.960598 183.785192,243.7508 Z" fill="url(#linearGradient-3)" opacity="0.5"></path>
		<path d="M109.058884,179.137606 C109.058884,172.770245 104.793004,167.636088 99.5162314,167.636088 C94.2352647,167.636088 89.9609954,172.782828 89.9609954,179.137606 C89.9609954,180.244973 89.9526062,184.38921 89.9526062,185.496578 C89.9526062,191.84716 94.2310701,196.989706 99.5078423,196.989706 C104.784614,196.989706 109.058884,191.834577 109.058884,185.496578 C109.058884,184.38921 109.058884,180.244973 109.058884,179.137606 Z" fill="#FF8F00"></path>
		<path d="M159.393753,179.137606 C159.393753,172.770245 154.876199,167.636088 149.591037,167.636088 C144.314265,167.636088 139.909964,172.782828 139.909964,179.137606 C139.909964,180.244973 139.834462,184.38921 139.834462,185.496578 C139.834462,191.84716 144.335238,196.989706 149.61201,196.989706 C154.888782,196.989706 159.393753,191.842966 159.393753,185.496578 L159.393753,179.137606 Z" fill="#FF8F00"></path>
	</g>
</svg>

<svg width="256" height="276" xmlns="http://www.w3.org/2000/svg" preserveAspectRatio="xMidYMid"><defs><linearGradient x1="47.271%" y1="-17.693%" x2="61.471%" y2="99.941%" id="a"><stop stop-color="#FFD54F" offset="0%"/><stop stop-color="#FFD03D" offset="21.64%"/><stop stop-color="#FFC516" offset="73.09%"/><stop stop-color="#FFC107" offset="100%"/></linearGradient><linearGradient x1="0%" y1="49.999%" x2="100%" y2="49.999%" id="b"><stop stop-color="#FFD54F" offset="0%"/><stop stop-color="#FFD03D" offset="21.64%"/><stop stop-color="#FFC516" offset="73.09%"/><stop stop-color="#FFC107" offset="100%"/></linearGradient><linearGradient x1="49.999%" y1="-.02%" x2="49.999%" y2="99.981%" id="c"><stop stop-color="#FFC107" offset="0%"/><stop stop-color="#FFBE06" offset="42.13%"/><stop stop-color="#FFB605" offset="69.37%"/><stop stop-color="#FFA701" offset="92.33%"/><stop stop-color="#FFA000" offset="100%"/></linearGradient></defs><path d="M128 257.04c3.348 0 6.666-.122 9.942-.387 1.967-.147 7.211-.746 9.158-.973 3.288-.42 7.47 19.958 10.688 19.304 3.423-.697 2.588-21.64 5.907-22.61C217.016 236.923 256 192.695 256 129.777H0C0 188.5 36.735 234.028 87.666 250.924c2.94.973 2.79 23.447 5.826 24.206 3.13.789 9.452-20.415 12.673-19.857 3.876.671 7.82 1.124 11.81 1.435 3.309.247 6.652.331 10.025.331z" fill="url(#a)"/><ellipse fill="#FFE082" cx="128" cy="128.782" rx="128" ry="24.484"/><path d="M255.996 129.776c0-67.113-51.967-123.421-117.974-128.543C134.712.986 131.372 0 128 0c-3.343 0-6.657 1.023-9.934 1.271C52.013 6.342 0 62.663 0 129.776h.1c-.037 4.194-.1.386-.1.65 0 13.532 57.311 24.417 128 24.417 70.697 0 128-10.856 128-24.38 0-.26-.059 3.507-.1-.687h.096z" fill="url(#b)" opacity=".2"/><path d="M183.785 243.75c-16.396 7.253-34.542 13.986-55.8 13.29-31.212-1.016-50.058-10.743-61.174-16.108-5.243-2.525 26.493-14.983 64.676-14.983 26.506-.008 63.15 13.012 52.298 17.802z" fill="url(#c)" opacity=".5"/><path d="M109.059 179.138c0-6.368-4.266-11.502-9.543-11.502-5.28 0-9.555 5.147-9.555 11.502 0 1.107-.008 5.251-.008 6.359 0 6.35 4.278 11.493 9.555 11.493s9.55-5.155 9.55-11.493v-6.36zm50.335 0c0-6.368-4.518-11.502-9.803-11.502-5.277 0-9.681 5.147-9.681 11.502 0 1.107-.076 5.251-.076 6.359 0 6.35 4.501 11.493 9.778 11.493s9.782-5.147 9.782-11.493v-6.36z" fill="#FF8F00"/></svg>
